files/img/podium.svg

<svg width="485" height="338" fill="none" xmlns="http://www.w3.org/2000/svg">
  <g clip-path="url(#a)">
    <path d="M387.732 271.021v26.547M407.732 271.021v26.547M427.732 271.021v26.547M242.458 167.031v26.547" stroke="#F6B17A" stroke-width="9" stroke-linecap="round" stroke-linejoin="round"/>
    <path d="M8.2307 334.51V193.219H123.494m30.137 141.291V135.04h177.125v196.825m32.781-92.179h113.148v92.179" stroke="#F6B17A" stroke-width="5" stroke-linecap="round" stroke-linejoin="round"/>
    <path d="M78.5 173c18.5014 0 33.5-14.775 33.5-33s-14.9986-33-33.5-33C59.9985 107 45 121.775 45 140s14.9985 33 33.5 33Z" stroke="#F6B17A" stroke-width="4" stroke-linejoin="round"/>
    <path d="M79.7004 131.362c-3.2582 1.336-9.7704 4.099-19.5363 8.29-1.5858.621-2.4166 1.229-2.4922 1.823-.1278 1.005 1.1489 1.4 2.8875 1.939h.0025c.2357.073.4798.149.7301.229 1.7105.548 4.0114 1.189 5.2075 1.214 1.085.023 2.296-.417 3.6329-1.322 9.1245-6.067 13.8349-9.134 14.1304-9.2.2087-.047.4978-.106.6938.066.1959.172.1765.496.1557.583-.1263.532-5.1379 5.121-7.7314 7.496l-.066.061c-.7735.708-1.3191 1.208-1.4332 1.325-.2626.269-.5303.523-.7875.767-1.5889 1.509-2.7809 2.641.066 4.489 1.3678.888 2.4625 1.622 3.5546 2.355 1.1926.8 2.3822 1.598 3.9216 2.592.3899.251.7625.513 1.1256.768l.0056.004c1.3879.975 2.6348 1.85 4.1755 1.711.8951-.081 1.8197-.911 2.2894-3.384 1.1098-5.844 3.2913-18.507 3.7955-23.725.0442-.457-.0114-1.042-.0563-1.299-.0445-.257-.1376-.623-.4767-.894-.4013-.321-1.021-.388-1.2981-.384-1.2599.023-3.1932.685-12.4965 4.496Z" fill="#F6B17A"/>
    <g clip-path="url(#b)">
      <path fill="#1F233C" d="M161.5 42h162v76h-162z"/>
      <g clip-path="url(#c)" stroke="#F6B17A" stroke-width="5">
        <circle cx="323.5" cy="117" r="69.5" transform="rotate(90 323.5 117)"/>
        <circle cx="323.5" cy="117" r="48.5539" transform="rotate(90 323.5 117)"/>
        <circle cx="323.5" cy="117" r="14.2356" transform="rotate(90 323.5 117)"/>
        <circle cx="323.5" cy="117" r="30.7803" transform="rotate(90 323.5 117)"/>
      </g>
      <path d="M172.856 76.306c-2.04 0-3.819-.2493-5.338-.748-1.519-.4987-2.686-1.2013-3.502-2.108-.793-.9293-1.19-2.006-1.19-3.23 0-1.8587 1.258-2.788 3.774-2.788.091 1.7227.669 3.026 1.734 3.91 1.088.884 2.607 1.326 4.556 1.326 1.609 0 2.856-.272 3.74-.816.884-.5667 1.326-1.3487 1.326-2.346 0-.6573-.17-1.19-.51-1.598-.34-.4307-.918-.8047-1.734-1.122-.816-.34-2.006-.68-3.57-1.02-2.221-.5213-3.978-1.0993-5.27-1.734-1.269-.6347-2.187-1.394-2.754-2.278-.567-.9067-.85-2.0287-.85-3.366 0-1.292.374-2.4253 1.122-3.4.771-.9747 1.847-1.734 3.23-2.278 1.405-.544 3.015-.816 4.828-.816 1.745 0 3.298.238 4.658.714 1.383.4533 2.459 1.0993 3.23 1.938.793.8387 1.19 1.802 1.19 2.89 0 1.6773-1.213 2.55-3.638 2.618-.136-1.564-.635-2.7087-1.496-3.434-.861-.7253-2.176-1.088-3.944-1.088-1.519 0-2.686.2493-3.502.748-.816.4987-1.224 1.2013-1.224 2.108 0 .6347.159 1.1673.476 1.598.317.408.85.7707 1.598 1.088.748.2947 1.813.6007 3.196.918 2.335.5213 4.182 1.1107 5.542 1.768 1.36.6347 2.346 1.4167 2.958 2.346.612.9067.918 2.0287.918 3.366 0 1.3827-.397 2.5953-1.19 3.638-.771 1.02-1.881 1.8133-3.332 2.38-1.428.544-3.105.816-5.032.816Zm13.17-21.148c0-1.0427.362-1.8473 1.088-2.414.725-.5667 1.768-.85 3.128-.85v8.84c-.295.3173-.567.68-.816 1.088l.204.136c1.564-2.176 3.558-3.264 5.984-3.264 1.156 0 2.176.2607 3.06.782.884.5213 1.564 1.2353 2.04 2.142.498.9067.748 1.9267.748 3.06v9.044c0 .9067-.352 1.564-1.054 1.972-.703.408-1.768.612-3.196.612V65.29c0-.8613-.261-1.564-.782-2.108-.499-.544-1.236-.816-2.21-.816-1.156 0-2.108.3627-2.856 1.088-.748.7027-1.122 1.5867-1.122 2.652v7.616c0 .9067-.352 1.564-1.054 1.972-.703.408-1.757.612-3.162.612V55.158Zm25.075 21.148c-1.156 0-2.221-.2267-3.196-.68-.952-.4533-1.722-1.0993-2.312-1.938-.566-.8613-.85-1.8813-.85-3.06s.306-2.1987.918-3.06c.612-.884 1.44-1.5527 2.482-2.006 1.066-.476 2.233-.714 3.502-.714 1.043 0 1.972.17 2.788.51.839.3173 1.61.8047 2.312 1.462l.17-.17c-.204-.204-.555-.51-1.054-.918v-.68c0-.9293-.328-1.666-.986-2.21-.657-.544-1.575-.816-2.754-.816-2.108 0-3.66.7707-4.658 2.312-.498-.1587-.918-.408-1.258-.748-.34-.3627-.51-.748-.51-1.156 0-.68.306-1.3033.918-1.87.612-.5667 1.44-1.02 2.482-1.36 1.043-.34 2.176-.51 3.4-.51 2.403 0 4.262.5667 5.576 1.7 1.315 1.1107 1.972 2.6293 1.972 4.556v8.5c0 .9973-.317 1.7227-.952 2.176-.634.4533-1.632.68-2.992.68v-1.394c.386-.3853.646-.6687.782-.85l-.136-.17c-.748.7933-1.552 1.394-2.414 1.802-.838.408-1.915.612-3.23.612Zm1.088-3.094c1.179 0 2.097-.2267 2.754-.68.658-.4533.986-1.0993.986-1.938 0-.816-.34-1.462-1.02-1.938-.657-.476-1.552-.714-2.686-.714-1.042 0-1.87.238-2.482.714-.589.4533-.884 1.0993-.884 1.938 0 .8613.295 1.5187.884 1.972.59.4307 1.406.646 2.448.646Zm20.741-10.846c-1.337 0-2.425.3627-3.264 1.088-.839.7027-1.258 1.5867-1.258 2.652v7.616c0 .9067-.34 1.564-1.02 1.972-.68.408-1.745.612-3.196.612V61.958c0-1.0427.329-1.8473.986-2.414.68-.5667 1.7-.85 3.06-.85V60.7c-.34.3853-.612.7593-.816 1.122l.204.136c1.428-2.176 3.219-3.264 5.372-3.264.975 0 1.711.2607 2.21.782.499.4987.748 1.1333.748 1.904 0 .5893-.159 1.088-.476 1.496-.612-.34-1.462-.51-2.55-.51Zm12.162 13.94c-1.405 0-2.686-.272-3.842-.816-1.156-.5667-2.074-1.326-2.754-2.278-.68-.9747-1.02-2.0627-1.02-3.264v-4.522c0-1.2693.352-2.414 1.054-3.434.703-1.02 1.632-1.8247 2.788-2.414 1.179-.5893 2.448-.884 3.808-.884 1.338 0 2.562.2833 3.672.85 1.134.544 2.029 1.3147 2.686 2.312.658.9747.986 2.0967.986 3.366v1.904c0 .4987-.192.918-.578 1.258-.362.34-.827.51-1.394.51h-8.908v.748c0 .9747.295 1.768.884 2.38.59.612 1.474.918 2.652.918 1.134 0 1.972-.2493 2.516-.748.567-.4987.85-1.1447.85-1.938.408-.0453.692-.068.85-.068.839 0 1.496.1927 1.972.578.476.3627.714.884.714 1.564 0 .6573-.306 1.292-.918 1.904-.612.612-1.45 1.1107-2.516 1.496-1.065.3853-2.232.578-3.502.578Zm3.536-10.438v-.646c0-.952-.328-1.7227-.986-2.312-.657-.5893-1.507-.884-2.55-.884-1.042 0-1.892.2947-2.55.884-.634.5667-.952 1.3373-.952 2.312v.646h7.038Zm-75.738 51.438c-1.859 0-3.559-.363-5.1-1.088-1.541-.748-2.765-1.757-3.672-3.026-.884-1.269-1.326-2.652-1.326-4.148v-7.922c0-1.496.442-2.8673 1.326-4.114.907-1.2693 2.131-2.2667 3.672-2.992 1.541-.748 3.241-1.122 5.1-1.122 1.859 0 3.559.374 5.1 1.122 1.564.7253 2.788 1.7227 3.672 2.992.907 1.2467 1.36 2.618 1.36 4.114v7.922c0 1.496-.453 2.879-1.36 4.148-.884 1.269-2.108 2.278-3.672 3.026-1.541.725-3.241 1.088-5.1 1.088Zm0-3.978c1.7 0 3.06-.397 4.08-1.19 1.02-.816 1.53-1.87 1.53-3.162v-7.752c0-1.3147-.51-2.3687-1.53-3.162-1.02-.816-2.38-1.224-4.08-1.224-1.677 0-3.026.408-4.046 1.224-1.02.7933-1.53 1.8473-1.53 3.162v7.752c0 1.292.51 2.346 1.53 3.162 1.02.793 2.369 1.19 4.046 1.19Zm28.829.68c0 1.065-.34 1.881-1.02 2.448-.658.567-1.666.85-3.026.85v-2.04c.294-.34.566-.714.816-1.122l-.204-.136c-1.451 2.199-3.4 3.298-5.848 3.298-1.156 0-2.199-.261-3.128-.782-.907-.544-1.632-1.292-2.176-2.244-.522-.952-.782-2.029-.782-3.23v-8.772c0-.929.34-1.587 1.02-1.972.702-.408 1.768-.612 3.196-.612v11.05c0 .884.272 1.587.816 2.108.544.521 1.326.782 2.346.782 1.133 0 2.04-.351 2.72-1.054.702-.725 1.054-1.621 1.054-2.686v-7.616c0-.929.34-1.587 1.02-1.972.68-.408 1.745-.612 3.196-.612v14.314Zm11.797 3.298c-1.836 0-3.196-.533-4.08-1.598-.884-1.065-1.326-2.437-1.326-4.114v-8.432h-3.502c0-1.065.204-1.859.612-2.38.408-.521.952-.782 1.632-.782h1.326v-2.822c0-.9293.34-1.5867 1.02-1.972.68-.408 1.712-.612 3.094-.612V100h4.522c0 1.133-.215 1.949-.646 2.448-.43.476-1.122.714-2.074.714h-1.734v8.262c0 .793.148 1.36.442 1.7.318.34.85.51 1.598.51.794 0 1.587-.215 2.38-.646.227.204.408.465.544.782.136.295.204.601.204.918 0 .68-.351 1.292-1.054 1.836-.702.521-1.688.782-2.958.782Z" fill="#fff"/>
    </g>
    <path d="M68.5 226.126v26.547M88.5 226.126v26.547" stroke="#F6B17A" stroke-width="9" stroke-linecap="round" stroke-linejoin="round"/>
    <path d="M374.807 174.163v37.702c0 2.458 1.992 4.45 4.449 4.45h10.679v-25.337l17.797 13.472 17.798-13.472v25.337h10.679c2.457 0 4.449-1.992 4.449-4.45v-37.702c0-5.888-6.741-9.231-11.428-5.667l-21.498 16.346-21.497-16.345c-4.687-3.565-11.428-.222-11.428 5.666Z" stroke="#F6B17A" stroke-width="4" stroke-linejoin="round"/>
  </g>
  <defs>
    <clipPath id="a">
      <path fill="#fff" d="M0 0h485v338H0z"/>
    </clipPath>
    <clipPath id="b">
      <path fill="#fff" transform="translate(161.5 42)" d="M0 0h162v76H0z"/>
    </clipPath>
    <clipPath id="c">
      <path fill="#fff" transform="rotate(90 139.25 184.25)" d="M0 0h72v72H0z"/>
    </clipPath>
  </defs>
</svg>

<svg width="485" height="338" viewBox="0 0 485 338" fill="none" xmlns="http://www.w3.org/2000/svg">
<g clip-path="url(#clip0_660_635)">
<path d="M387.732 271.021V297.568" stroke="#F6B17A" stroke-width="9" stroke-linecap="round" stroke-linejoin="round"/>
<path d="M407.732 271.021V297.568" stroke="#F6B17A" stroke-width="9" stroke-linecap="round" stroke-linejoin="round"/>
<path d="M427.732 271.021V297.568" stroke="#F6B17A" stroke-width="9" stroke-linecap="round" stroke-linejoin="round"/>
<path d="M242.458 167.031V193.578" stroke="#F6B17A" stroke-width="9" stroke-linecap="round" stroke-linejoin="round"/>
<path d="M8.23071 334.51V193.219H123.494M153.631 334.51V135.04H330.756V331.865M363.537 239.686H476.685V331.865" stroke="#F6B17A" stroke-width="5" stroke-linecap="round" stroke-linejoin="round"/>
<path d="M78.5 173C97.0014 173 112 158.225 112 140C112 121.775 97.0014 107 78.5 107C59.9985 107 45 121.775 45 140C45 158.225 59.9985 173 78.5 173Z" stroke="#F6B17A" stroke-width="4" stroke-linejoin="round"/>
<path d="M79.7004 131.362C76.4422 132.698 69.93 135.461 60.1641 139.652C58.5783 140.273 57.7475 140.881 57.6719 141.475C57.5441 142.48 58.8208 142.875 60.5594 143.414L60.5619 143.414C60.7976 143.487 61.0417 143.563 61.292 143.643C63.0025 144.191 65.3034 144.832 66.4995 144.857C67.5845 144.88 68.7955 144.44 70.1324 143.535C79.2569 137.468 83.9673 134.401 84.2628 134.335C84.4715 134.288 84.7606 134.229 84.9566 134.401C85.1525 134.573 85.1331 134.897 85.1123 134.984C84.986 135.516 79.9744 140.105 77.3809 142.48L77.3149 142.541C76.5414 143.249 75.9958 143.749 75.8817 143.866C75.6191 144.135 75.3514 144.389 75.0942 144.633C73.5053 146.142 72.3133 147.274 75.1602 149.122C76.528 150.01 77.6227 150.744 78.7148 151.477C79.9074 152.277 81.097 153.075 82.6364 154.069C83.0263 154.32 83.3989 154.582 83.762 154.837L83.7676 154.841C85.1555 155.816 86.4024 156.691 87.9431 156.552C88.8382 156.471 89.7628 155.641 90.2325 153.168C91.3423 147.324 93.5238 134.661 94.028 129.443C94.0722 128.986 94.0166 128.401 93.9717 128.144C93.9272 127.887 93.8341 127.521 93.495 127.25C93.0937 126.929 92.474 126.862 92.1969 126.866C90.937 126.889 89.0037 127.551 79.7004 131.362Z" fill="#F6B17A"/>
<g clip-path="url(#clip1_660_635)">
<rect width="162" height="76" transform="translate(161.5 42)" fill="#1F233C"/>
<g clip-path="url(#clip2_660_635)">
<circle cx="323.5" cy="117" r="69.5" transform="rotate(90 323.5 117)" stroke="#F6B17A" stroke-width="5"/>
<circle cx="323.5" cy="117" r="48.5539" transform="rotate(90 323.5 117)" stroke="#F6B17A" stroke-width="5"/>
<circle cx="323.5" cy="117" r="14.2356" transform="rotate(90 323.5 117)" stroke="#F6B17A" stroke-width="5"/>
<circle cx="323.5" cy="117" r="30.7803" transform="rotate(90 323.5 117)" stroke="#F6B17A" stroke-width="5"/>
</g>
<path d="M172.856 76.306C170.816 76.306 169.037 76.0567 167.518 75.558C165.999 75.0593 164.832 74.3567 164.016 73.45C163.223 72.5207 162.826 71.444 162.826 70.22C162.826 68.3613 164.084 67.432 166.6 67.432C166.691 69.1547 167.269 70.458 168.334 71.342C169.422 72.226 170.941 72.668 172.89 72.668C174.499 72.668 175.746 72.396 176.63 71.852C177.514 71.2853 177.956 70.5033 177.956 69.506C177.956 68.8487 177.786 68.316 177.446 67.908C177.106 67.4773 176.528 67.1033 175.712 66.786C174.896 66.446 173.706 66.106 172.142 65.766C169.921 65.2447 168.164 64.6667 166.872 64.032C165.603 63.3973 164.685 62.638 164.118 61.754C163.551 60.8473 163.268 59.7253 163.268 58.388C163.268 57.096 163.642 55.9627 164.39 54.988C165.161 54.0133 166.237 53.254 167.62 52.71C169.025 52.166 170.635 51.894 172.448 51.894C174.193 51.894 175.746 52.132 177.106 52.608C178.489 53.0613 179.565 53.7073 180.336 54.546C181.129 55.3847 181.526 56.348 181.526 57.436C181.526 59.1133 180.313 59.986 177.888 60.054C177.752 58.49 177.253 57.3453 176.392 56.62C175.531 55.8947 174.216 55.532 172.448 55.532C170.929 55.532 169.762 55.7813 168.946 56.28C168.13 56.7787 167.722 57.4813 167.722 58.388C167.722 59.0227 167.881 59.5553 168.198 59.986C168.515 60.394 169.048 60.7567 169.796 61.074C170.544 61.3687 171.609 61.6747 172.992 61.992C175.327 62.5133 177.174 63.1027 178.534 63.76C179.894 64.3947 180.88 65.1767 181.492 66.106C182.104 67.0127 182.41 68.1347 182.41 69.472C182.41 70.8547 182.013 72.0673 181.22 73.11C180.449 74.13 179.339 74.9233 177.888 75.49C176.46 76.034 174.783 76.306 172.856 76.306ZM186.026 55.158C186.026 54.1153 186.388 53.3107 187.114 52.744C187.839 52.1773 188.882 51.894 190.242 51.894V60.734C189.947 61.0513 189.675 61.414 189.426 61.822L189.63 61.958C191.194 59.782 193.188 58.694 195.614 58.694C196.77 58.694 197.79 58.9547 198.674 59.476C199.558 59.9973 200.238 60.7113 200.714 61.618C201.212 62.5247 201.462 63.5447 201.462 64.678V73.722C201.462 74.6287 201.11 75.286 200.408 75.694C199.705 76.102 198.64 76.306 197.212 76.306V65.29C197.212 64.4287 196.951 63.726 196.43 63.182C195.931 62.638 195.194 62.366 194.22 62.366C193.064 62.366 192.112 62.7287 191.364 63.454C190.616 64.1567 190.242 65.0407 190.242 66.106V73.722C190.242 74.6287 189.89 75.286 189.188 75.694C188.485 76.102 187.431 76.306 186.026 76.306V55.158ZM211.101 76.306C209.945 76.306 208.88 76.0793 207.905 75.626C206.953 75.1727 206.183 74.5267 205.593 73.688C205.027 72.8267 204.743 71.8067 204.743 70.628C204.743 69.4493 205.049 68.4293 205.661 67.568C206.273 66.684 207.101 66.0153 208.143 65.562C209.209 65.086 210.376 64.848 211.645 64.848C212.688 64.848 213.617 65.018 214.433 65.358C215.272 65.6753 216.043 66.1627 216.745 66.82L216.915 66.65C216.711 66.446 216.36 66.14 215.861 65.732V65.052C215.861 64.1227 215.533 63.386 214.875 62.842C214.218 62.298 213.3 62.026 212.121 62.026C210.013 62.026 208.461 62.7967 207.463 64.338C206.965 64.1793 206.545 63.93 206.205 63.59C205.865 63.2273 205.695 62.842 205.695 62.434C205.695 61.754 206.001 61.1307 206.613 60.564C207.225 59.9973 208.053 59.544 209.095 59.204C210.138 58.864 211.271 58.694 212.495 58.694C214.898 58.694 216.757 59.2607 218.071 60.394C219.386 61.5047 220.043 63.0233 220.043 64.95V73.45C220.043 74.4473 219.726 75.1727 219.091 75.626C218.457 76.0793 217.459 76.306 216.099 76.306V74.912C216.485 74.5267 216.745 74.2433 216.881 74.062L216.745 73.892C215.997 74.6853 215.193 75.286 214.331 75.694C213.493 76.102 212.416 76.306 211.101 76.306ZM212.189 73.212C213.368 73.212 214.286 72.9853 214.943 72.532C215.601 72.0787 215.929 71.4327 215.929 70.594C215.929 69.778 215.589 69.132 214.909 68.656C214.252 68.18 213.357 67.942 212.223 67.942C211.181 67.942 210.353 68.18 209.741 68.656C209.152 69.1093 208.857 69.7553 208.857 70.594C208.857 71.4553 209.152 72.1127 209.741 72.566C210.331 72.9967 211.147 73.212 212.189 73.212ZM232.93 62.366C231.593 62.366 230.505 62.7287 229.666 63.454C228.827 64.1567 228.408 65.0407 228.408 66.106V73.722C228.408 74.6287 228.068 75.286 227.388 75.694C226.708 76.102 225.643 76.306 224.192 76.306V61.958C224.192 60.9153 224.521 60.1107 225.178 59.544C225.858 58.9773 226.878 58.694 228.238 58.694V60.7C227.898 61.0853 227.626 61.4593 227.422 61.822L227.626 61.958C229.054 59.782 230.845 58.694 232.998 58.694C233.973 58.694 234.709 58.9547 235.208 59.476C235.707 59.9747 235.956 60.6093 235.956 61.38C235.956 61.9693 235.797 62.468 235.48 62.876C234.868 62.536 234.018 62.366 232.93 62.366ZM245.092 76.306C243.687 76.306 242.406 76.034 241.25 75.49C240.094 74.9233 239.176 74.164 238.496 73.212C237.816 72.2373 237.476 71.1493 237.476 69.948V65.426C237.476 64.1567 237.828 63.012 238.53 61.992C239.233 60.972 240.162 60.1673 241.318 59.578C242.497 58.9887 243.766 58.694 245.126 58.694C246.464 58.694 247.688 58.9773 248.798 59.544C249.932 60.088 250.827 60.8587 251.484 61.856C252.142 62.8307 252.47 63.9527 252.47 65.222V67.126C252.47 67.6247 252.278 68.044 251.892 68.384C251.53 68.724 251.065 68.894 250.498 68.894H241.59V69.642C241.59 70.6167 241.885 71.41 242.474 72.022C243.064 72.634 243.948 72.94 245.126 72.94C246.26 72.94 247.098 72.6907 247.642 72.192C248.209 71.6933 248.492 71.0473 248.492 70.254C248.9 70.2087 249.184 70.186 249.342 70.186C250.181 70.186 250.838 70.3787 251.314 70.764C251.79 71.1267 252.028 71.648 252.028 72.328C252.028 72.9853 251.722 73.62 251.11 74.232C250.498 74.844 249.66 75.3427 248.594 75.728C247.529 76.1133 246.362 76.306 245.092 76.306ZM248.628 65.868V65.222C248.628 64.27 248.3 63.4993 247.642 62.91C246.985 62.3207 246.135 62.026 245.092 62.026C244.05 62.026 243.2 62.3207 242.542 62.91C241.908 63.4767 241.59 64.2473 241.59 65.222V65.868H248.628ZM172.89 117.306C171.031 117.306 169.331 116.943 167.79 116.218C166.249 115.47 165.025 114.461 164.118 113.192C163.234 111.923 162.792 110.54 162.792 109.044V101.122C162.792 99.626 163.234 98.2547 164.118 97.008C165.025 95.7387 166.249 94.7413 167.79 94.016C169.331 93.268 171.031 92.894 172.89 92.894C174.749 92.894 176.449 93.268 177.99 94.016C179.554 94.7413 180.778 95.7387 181.662 97.008C182.569 98.2547 183.022 99.626 183.022 101.122V109.044C183.022 110.54 182.569 111.923 181.662 113.192C180.778 114.461 179.554 115.47 177.99 116.218C176.449 116.943 174.749 117.306 172.89 117.306ZM172.89 113.328C174.59 113.328 175.95 112.931 176.97 112.138C177.99 111.322 178.5 110.268 178.5 108.976V101.224C178.5 99.9093 177.99 98.8553 176.97 98.062C175.95 97.246 174.59 96.838 172.89 96.838C171.213 96.838 169.864 97.246 168.844 98.062C167.824 98.8553 167.314 99.9093 167.314 101.224V108.976C167.314 110.268 167.824 111.322 168.844 112.138C169.864 112.931 171.213 113.328 172.89 113.328ZM201.719 114.008C201.719 115.073 201.379 115.889 200.699 116.456C200.041 117.023 199.033 117.306 197.673 117.306V115.266C197.967 114.926 198.239 114.552 198.489 114.144L198.285 114.008C196.834 116.207 194.885 117.306 192.437 117.306C191.281 117.306 190.238 117.045 189.309 116.524C188.402 115.98 187.677 115.232 187.133 114.28C186.611 113.328 186.351 112.251 186.351 111.05V102.278C186.351 101.349 186.691 100.691 187.371 100.306C188.073 99.898 189.139 99.694 190.567 99.694V110.744C190.567 111.628 190.839 112.331 191.383 112.852C191.927 113.373 192.709 113.634 193.729 113.634C194.862 113.634 195.769 113.283 196.449 112.58C197.151 111.855 197.503 110.959 197.503 109.894V102.278C197.503 101.349 197.843 100.691 198.523 100.306C199.203 99.898 200.268 99.694 201.719 99.694V114.008ZM213.516 117.306C211.68 117.306 210.32 116.773 209.436 115.708C208.552 114.643 208.11 113.271 208.11 111.594V103.162H204.608C204.608 102.097 204.812 101.303 205.22 100.782C205.628 100.261 206.172 100 206.852 100H208.178V97.178C208.178 96.2487 208.518 95.5913 209.198 95.206C209.878 94.798 210.91 94.594 212.292 94.594V100H216.814C216.814 101.133 216.599 101.949 216.168 102.448C215.738 102.924 215.046 103.162 214.094 103.162H212.36V111.424C212.36 112.217 212.508 112.784 212.802 113.124C213.12 113.464 213.652 113.634 214.4 113.634C215.194 113.634 215.987 113.419 216.78 112.988C217.007 113.192 217.188 113.453 217.324 113.77C217.46 114.065 217.528 114.371 217.528 114.688C217.528 115.368 217.177 115.98 216.474 116.524C215.772 117.045 214.786 117.306 213.516 117.306Z" fill="white"/>
</g>
<path d="M68.5 226.126V252.673" stroke="#F6B17A" stroke-width="9" stroke-linecap="round" stroke-linejoin="round"/>
<path d="M88.5 226.126V252.673" stroke="#F6B17A" stroke-width="9" stroke-linecap="round" stroke-linejoin="round"/>
<path d="M374.807 174.163V211.865C374.807 214.323 376.799 216.315 379.256 216.315H389.935V190.978L407.732 204.45L425.53 190.978V216.315H436.209C438.666 216.315 440.658 214.323 440.658 211.865V174.163C440.658 168.275 433.917 164.932 429.23 168.496L407.732 184.842L386.235 168.497C381.548 164.932 374.807 168.275 374.807 174.163Z" stroke="#F6B17A" stroke-width="4" stroke-linejoin="round"/>
</g>
<defs>
<clipPath id="clip0_660_635">
<rect width="485" height="338" fill="white"/>
</clipPath>
<clipPath id="clip1_660_635">
<rect width="162" height="76" fill="white" transform="translate(161.5 42)"/>
</clipPath>
<clipPath id="clip2_660_635">
<rect width="72" height="72" fill="white" transform="translate(323.5 45) rotate(90)"/>
</clipPath>
</defs>
</svg>
